!!!!SEGMENT: pl-kk--kk-i-382--045-001_lobmann-j--msza-na-3-glosy-kyrie.krn
!!!cenid: 18xx:1544
!!!COM: Löbmann, J.
!!!COM-rismid: pe30015898
!!!CDT: ~1800-~1899
!!!CNT:
!!!OPR: Msza na 3 głosy
!!!OTL: Kyrie
!!!OMV: 001
!!!PDT:
!!!AGN: Sacred; Mass
!!!SMS-siglum: PL-Kk
!!!SMS-shelfmark: Kk.I.382
!!!SMS-shelfwork: 031-001 M
!!!SMS-variant:
!!!SMS-altvar:
!!!NIFC-rismid: 1001140396
!!!URL-scan: http://repozytorium.nifc.pl/skany/pl-kk-nut--i-382
!!!ONB-nifc: UWAGA: obsada: S/T 1, T 2, B 2. Skany 0037-0038, 0107-0108, 0256-0257. Osobne części Mszy: Kyrie, Sanctus, Benedictus, Agnus Dei
!!!key:
**kern	**text	**kern	**text	**kern	**text
*part3	*part3	*part2	*part2	*part1	*part1
*staff3	*staff3	*staff2	*staff2	*staff1	*staff1
*Ibass	*	*Itenor	*	*Itenor	*
*I"Basso II	*	*I"Tenor II	*	*I"Soprano vel. Tenor I	*
*I'B.II	*	*I'T.II	*	*I'S./T.I	*
*clefF4	*	*clefG2	*	*clefG2	*
*k[b-]	*	*k[b-]	*	*k[b-]	*
*g:	*	*g:	*	*g:	*
*M4/4	*	*M4/4	*	*M4/4	*
*met(c)	*	*met(c)	*	*met(c)	*
=1	=1	=1	=1	=1	=1
*2\right	*	*	*	*	*
!LO:TX:t=P:problem:all\right:global	!	!LO:TX:a:t=3	!	!LO:TX:a:t=6	!
2D\	Ky-	1r	.	1r	.
2E\	-ri-	.	.	.	.
=2	=2	=2	=2	=2	=2
2F\	-e	1r	.	1r	.
4r	.	.	.	.	.
4F\	e-	.	.	.	.
=3	=3	=3	=3	=3	=3
(2G\	-le-	1r	.	1r	.
4F\)	.	.	.	.	.
4E\	-i-	.	.	.	.
=4	=4	=4	=4	=4	=4
!	!	!LO:TX:t=P:problem:all\right:global	!	!	!
4D\	-son	2a/	Ky-	1r	.
4F\	e-	.	.	.	.
*	*	*2\right	*	*	*
4F\	-le-	2bn\	-ri-	.	.
4E\	-i-	.	.	.	.
=5	=5	=5	=5	=5	=5
4AA/	-son	2cc\	-e	1r	.
4E\	e-	.	.	.	.
(4A\	-le-	4r	.	.	.
4G\)	-i-	4cc\	e-	.	.
!LO:LB:g=original	!	!	!	!	!
=6	=6	=6	=6	=6	=6
(4F\	.	(2dd\	-lei-	1r	.
4E\	.	.	.	.	.
4F\)	.	(4cc\)	.	.	.
4G\	.	4b-X\)	.	.	.
!	!	!LO:LB:g=original	!	!	!
=7	=7	=7	=7	=7	=7
*	*	*	*	*2\right	*
!	!	!	!	!LO:TX:t=P:problem:all\right:global	!
4F\	-son	4a/	-son	2dd\	Ky-
4D\	e-	4g/	e-	.	.
4D\	-le-	4b-\	-lei-	2ee\	-ri-
4C#X/	-i-	4a/	.	.	.
=8	=8	=8	=8	=8	=8
2D\	-son	4a/	-son	2ff\	-e
.	.	4a/	e-	.	.
4r	.	[2dd\	-lei-	4r	.
4D\	e-	.	.	4ff\	e-
=9	=9	=9	=9	=9	=9
4E\	-le-	(4dd\]	.	2gg\	-le-
4E\	-i-	4bn\	.	.	.
4A\	-son	4cc#X\)	.	4ff\	.
4r	.	4cc#\	-i-	4ee\	.
=10	=10	=10	=10	=10	=10
2D\	e-	4dd\	-son	2.dd\	.
.	.	4a/	e-	.	.
2E\	-lei-	4g/	-le-	.	.
!	!	!LO:TX:t=P:problem:zapis poprawiany	!	!	!
!	!	!LO:TX:a:t=g	!	!	!
.	.	4g/	-i-	4cc#X\	-i-
!LO:LB:g=original	!	!	!	!LO:LB:g=original	!
=11	=11	=11	=11	=11	=11
2F\	-son	4a/	-son	2dd\	-son
.	.	4a/	e-	.	.
4r	.	[2dd\	-le-	4r	.
4F\	e-	.	.	4dd\	e-
!	!	!LO:LB:g=original	!	!	!
=12	=12	=12	=12	=12	=12
(2G\	-le-	4dd\]	.	2ee\	-lei-
.	.	8cc\L	-i-	.	.
.	.	8bn\J	.	.	.
4F\)	.	4a/	-son	4dd\	.
4E\	-i-	4g/	e-	4ee\	.
=13	=13	=13	=13	=13	=13
2.D\	-son	4f/	-le-	1ff\	-son
.	.	(4g/	.	.	.
.	.	4a/	.	.	.
4G\	e-	4bn\)	-i-	.	.
=14	=14	=14	=14	=14	=14
4A\	-le-	2cc\	-son	(2ee\	e-
4G\	.	.	.	.	.
4F\	.	(4cc\	e-	2dd\)	.
4G\	.	4b-X\)	.	.	.
=15	=15	=15	=15	=15	=15
4E\	.	(4b-\	-le-	(2cc\	-lei-
4F\	.	4a\	.	.	.
4D\	.	4a\	.	2b-X\)	.
4E\	-i-	4g/)	-i-	.	.
=16	=16	=16	=16	=16	=16
1F\;	-son	1f/;	-son	1a/;	-son
!LO:LB:g=original	!	!LO:LB:g=original	!	!	!
=17||	=17||	=17||	=17||	=17||	=17||
4r	.	4r	.	4r	.
4F\	Chri-	4a/	Chri-	4cc\	Chri-
4F\	-ste	4a/	-ste	4cc\	-ste
4F\	e-	4a/	e-	4cc\	e-
!	!	!	!	!LO:LB:g=original	!
=18	=18	=18	=18	=18	=18
4F\	-lei-	4b-\	-le-	4dd\	-le-
4E\	.	4b-\	-i-	4dd\	-i-
4F\	-son	4a/	-son	4cc\	-son
4E\	e-	4a/	e-	4cc\	e-
=19	=19	=19	=19	=19	=19
(<2D\	-lei-	2a/	-le-	2ff\	-lei-
2GG/)	.	2bn\	-i-	2ff\	-son
=20	=20	=20	=20	=20	=20
2C/	-son	2cc\	-son	2ee\	.
4r	.	4r	.	2r	.
4r	.	4r	.	.	.
=21	=21	=21	=21	=21	=21
2G\	Chri-	2b-X\	Chri-	2dd\	Chri-
4G\	-ste	4b-\	-ste	4dd\	-ste
4G\	e-	4b-\	e-	4dd\	e-
!	!	!LO:LB:g=original	!	!	!
=22	=22	=22	=22	=22	=22
4F#X\	-le-	4cc\	-le-	4ee-X\	-le-
4F#\	-i-	4cc\	-i-	4ee-\	-i-
!LO:LB:g=original	!	!	!	!	!
4G\	-son	4b-\	-son	4dd\	-son
4G\	e-	4b-\	e-	4dd\	e-
=23	=23	=23	=23	=23	=23
2C/	-le-	(4b-\	-le-	2een\	-le-
.	.	4dd\	.	.	.
2C/	-i-	4cc\	.	2ee\	-i-
.	.	4b-\)	-i-	.	.
!	!	!	!	!LO:PB:g=original	!
=24	=24	=24	=24	=24	=24
2D\	-son	2a/	-son	2ff\	-son
2D\	e-	2f/	e-	(4a/	e-
.	.	.	.	4b-/)	.
=25	=25	=25	=25	=25	=25
4C/	-le-	2f/	-le-	2cc\	-le-
4D/	.	.	.	.	.
4C/	.	4e/	.	2cc\	-i-
4BB-/	-i-	[>4g/	.	.	.
=26	=26	=26	=26	=26	=26
1AA/	-son	4g/]	-i-	1cc\	-son
.	.	8f/L	.	.	.
.	.	8e/J	.	.	.
.	.	2f/	-son	.	.
!	!	!LO:LB:g=original	!	!	!
=27	=27	=27	=27	=27	=27
!	!	!	!	!LO:TX:a:t=1	!
2D\	Chri-	2f/	Chris-	1r	.
4G\	-ste	2b-\	-te	.	.
4F\	e	.	.	.	.
!LO:PB:g=original	!	!	!	!	!
=28	=28	=28	=28	=28	=28
4E\	Chri-	2b-\	Chri-	2cc\	Chri-
4C/	-ste	.	.	.	.
(4D\	e-	4a/	-ste	2ff\	-ste
8AA/L	.	4dd\	e-	.	.
8BB-/J)	.	.	.	.	.
=29	=29	=29	=29	=29	=29
2C/	-lei-	4dd\	-lei-	(2ee\	e-
.	.	4cc\	.	.	.
4F\	-son	4cc\	-son	2dd\)	.
8G\L	e-	4b-\	e-	.	.
8F\J	.	.	.	.	.
=30	=30	=30	=30	=30	=30
4E\	-le-	(2b-\	-le-	(2.cc\	-lei-
4C/	.	.	.	.	.
4D\	.	4a/	.	.	.
4GG/	.	4g/	.	4b-\)	.
!	!	!	!	!LO:LB:g=original	!
=31	=31	=31	=31	=31	=31
2C/	.	2f/	.	2a/	.
2C/	-i-	2e/)	-i-	2g/	.
=32	=32	=32	=32	=32	=32
1FF/;	-son	1f/;	-son	1f/;	-son.
!	!	!LO:LB:g=original	!	!	!
=33||	=33||	=33	=33	=33||	=33||
(<4D\	Ky-	4f/	Ky-	2dd\	Ky-
2F\)	.	4a/	-ri-	.	.
.	.	[2b-\	-e	2gg\	-ri-
4E\	-ri-	.	.	.	.
!LO:LB:g=original	!	!	!	!	!
=34	=34	=34	=34	=34	=34
2D\	-e	4b-\]	.	2ff\	-e
.	.	2a/	e-	.	.
2F\	e-	.	.	2dd\	e-
.	.	[4dd\	.	.	.
=35	=35	=35	=35	=35	=35
4G\	-le-	2dd\]	.	2.ee\	-le-
4B-\	.	.	.	.	.
4A\	.	2cc#X\	-e-	.	.
4G\	.	.	.	4ee\	-i-
=36	=36	=36	=36	=36	=36
4F#X\	.	4dd\	-le-	2.dd\	-son
4A\	-i-	4ccn\	-i-	.	.
4D\	-son	4b-\	-son	.	.
4r	.	4a/	e-	[4cc\	e-
=37	=37	=37	=37	=37	=37
2GG/	Ky-	(>4a/	-le-	4cc\]	.
.	.	2g/)	.	4b-\	-lei-
2C/	-ri-	.	.	4ee-X\	.
.	.	4f#X/	-i-	4ee-\	.
!	!	!	!	!LO:LB:g=original	!
=38	=38	=38	=38	=38	=38
2BB-/	-e	4g/	-son	1dd\	-son
.	.	4d/	e-	.	.
2GG/	e-	4b-\	-le-	.	.
.	.	[4g/	.	.	.
!	!	!LO:LB:g=original	!	!	!
=39	=39	=39	=39	=39	=39
2.AA/	-le-	4g/]	.	2.cc\	Ky-
.	.	4f#X/	.	.	.
.	.	4e/	.	.	.
4AA/	-i-	4f#/	-i-	4cc\	-ri-
!LO:LB:g=original	!	!	!	!	!
=40	=40	=40	=40	=40	=40
2GG/	-son	4g/	-son	(4b-\	-e
.	.	4a/	e-	4cc\	.
2G\	e-	4b-/	-le-	4dd\	.
.	.	4g/	.	4b-\)	.
=41	=41	=41	=41	=41	=41
2A\	-le-	2f/	.	4a/	e-
.	.	.	.	2dd\	-le-
2AA/	-i-	4e/	.	.	.
.	.	4g/	-i-	4cc#X\	-i-
=42	=42	=42	=42	=42	=42
4D\	-son	4f/	-son	2dd\	-son
4E\	e-	4g/	.	.	.
4F\	.	4a/	e-	2dd\	e-
4F#X\	.	4cc\	.	.	.
=43	=43	=43	=43	=43	=43
2G\	-le-	2cc\	-le-	2.dd\	-le-
4GG/	.	4b-\	.	.	.
4BB-/	-i-	4g/	-i-	4dd\	-i-
=44	=44	=44	=44	=44	=44
1D\;	-son.	1f#X/;	-son.	1dd\	-son.
==	==	==	==	==	==
*-	*-	*-	*-	*-	*-
!!!system-decoration: [(s1,s2,s3)]
!!!RDF**kern: > = above
!!!RDF**kern: < = below
!!!EED: Leszek Kubiak
!!!EST: 2021-02-11
!!!AIN: 1 bass 2 tenor
!!!ENC: Andrzej Gręziak
!!!END: 2021-01-30
